build/img/logo.svg

<svg width="144" height="42" viewBox="0 0 144 42" fill="none" xmlns="http://www.w3.org/2000/svg">
<path d="M31.7478 17.463L26.3447 23.5318C26.0008 23.898 25.5792 24.1864 25.1354 24.3639H27.8758C28.8299 24.3639 29.7397 23.9756 30.3721 23.2988L35.7641 17.2522C35.8195 17.1968 35.8861 17.1413 35.9527 17.0969H32.5799C32.2803 17.0969 32.003 17.2079 31.7922 17.4187L31.7478 17.463Z" fill="white"/>
<path d="M13.2751 19.3268V39.7854C13.2751 40.5731 13.9186 41.2166 14.7064 41.2166C15.4941 41.2166 16.1376 40.5731 16.1376 39.7854V19.3268C16.1376 19.3157 16.1376 19.3046 16.1376 19.2935V19.2824C16.1487 18.9052 16.2374 18.528 16.415 18.1952C16.6701 17.6959 17.0917 17.3076 17.5799 17.0857H15.5385C14.2848 17.0857 13.2751 18.0953 13.2751 19.3268Z" fill="white"/>
<path d="M2.04734 27.0488C3.66716 30.3772 6.19674 33.1398 9.38092 35.0259V32.6294C9.38092 31.9749 9.09245 31.3536 8.60429 30.932C5.07618 27.892 3.04586 23.4763 3.04586 18.8277C3.04586 14.5562 4.73225 10.551 7.78328 7.52219C10.8343 4.50444 14.8617 2.85133 19.1331 2.89571C22.4283 2.9179 25.5791 3.9497 28.2419 5.84689C30.838 7.6997 32.7907 10.2404 33.9112 13.2027C34.6213 13.1805 35.2648 12.8033 35.6309 12.193C36.0081 11.5607 36.0414 10.7951 35.6975 10.1405C33.9001 6.70118 31.0155 3.82766 27.5651 2.06361C24.9024 0.698965 21.9956 0 19 0C17.9016 0 16.7922 0.0998521 15.6716 0.288462C12.2212 0.876479 8.72633 2.80695 5.81953 5.71376C2.92382 8.62056 1.00444 12.1265 0.427513 15.5769C-0.227073 19.5488 0.327661 23.5096 2.04734 27.0488Z" fill="white"/>
<path d="M18.5895 17.0747C17.7685 17.0747 17.0252 17.5074 16.6368 18.2175L21.7182 23.2988C22.3284 23.9756 23.1272 24.3528 23.9704 24.3528C24.7138 24.3528 25.4349 24.0754 26.0007 23.554L20.1428 17.696C19.7212 17.2966 19.1775 17.0747 18.5895 17.0747Z" fill="white"/>
<path d="M36.6849 17.0857C36.3964 17.0857 36.1191 17.1966 35.9194 17.3963L35.875 17.4407L34.943 18.4836V18.8276C34.943 26.5495 29.4401 33.1508 21.8513 34.5154C20.7862 34.704 20.0207 35.636 20.0207 36.7122V37.6219C24.8136 37.3668 29.2847 35.3142 32.6131 31.8305C35.9748 28.3135 37.8387 23.687 37.8387 18.8165C37.8387 18.6057 37.8387 18.3727 37.8276 18.1064C37.7722 17.5406 37.2729 17.0857 36.6849 17.0857Z" fill="white"/>
<path d="M64.3516 18.1539C64.1504 15.337 61.8868 13.0734 59.0866 12.8889C57.4937 12.7715 55.9678 13.3081 54.8109 14.398C53.6707 15.4711 53 16.9802 53 18.5396V27.2922C53 27.8623 53.4695 28.3318 54.0396 28.3318H54.1234V21.9601C55.1965 23.4021 56.8733 24.2405 58.6842 24.2405C60.2603 24.2405 61.7694 23.5866 62.8425 22.4296C63.9324 21.2727 64.469 19.7636 64.3516 18.1539ZM58.986 23.1171C57.6781 23.2009 56.387 22.7147 55.4648 21.7925C54.5426 20.8703 54.0564 19.5792 54.1402 18.2713C54.2911 15.9909 56.1188 14.1633 58.3991 14.0123C58.4997 14.0123 58.6003 13.9956 58.6842 13.9956C59.8914 13.9956 61.0484 14.4651 61.9203 15.337C62.8425 16.2592 63.3288 17.5503 63.2449 18.8582C63.094 21.1385 61.2664 22.9662 58.986 23.1171Z" fill="white"/>
<path d="M78.5704 18.5563C78.5704 16.9802 77.9165 15.4711 76.7595 14.398C75.6026 13.3081 74.0767 12.7715 72.4838 12.8889C69.6669 13.0901 67.4033 15.3537 67.2188 18.1539C67.1014 19.7468 67.6548 21.2727 68.7279 22.4296C69.801 23.5698 71.3101 24.2405 72.8862 24.2405C74.6804 24.2405 76.3739 23.3854 77.447 21.9601V24.0225H77.5308C78.1009 24.0225 78.5704 23.5531 78.5704 22.983V18.6234V18.5899V18.5563ZM77.4302 18.8582C77.2793 21.1385 75.4517 22.9662 73.1713 23.1171C71.8634 23.2009 70.5723 22.7147 69.6501 21.7925C68.7279 20.8703 68.2416 19.5792 68.3255 18.2713C68.4764 15.9909 70.304 14.1633 72.5844 14.0123C72.685 14.0123 72.7856 13.9956 72.8695 13.9956C74.0767 13.9956 75.2337 14.4651 76.1056 15.337C77.0278 16.2592 77.5141 17.5503 77.4302 18.8582Z" fill="white"/>
<path d="M109.942 18.3548C109.842 15.3199 107.31 12.8718 104.258 12.8718C102.464 12.8718 100.771 13.727 99.6975 15.1522V13.1066H99.6137C99.0436 13.1066 98.5741 13.5761 98.5741 14.1462V22.9826C98.5741 23.5527 99.0436 24.0222 99.6137 24.0222H99.6975V18.6399C99.6975 16.2756 101.659 14.1462 103.973 14.012C105.248 13.9282 106.455 14.3641 107.377 15.236C108.299 16.108 108.819 17.2817 108.819 18.556V24.0222H108.903C109.473 24.0222 109.942 23.5527 109.942 22.9826V18.3548Z" fill="white"/>
<path d="M112.91 19.78C112.91 19.8136 112.927 19.8471 112.927 19.8806L112.944 19.9477H112.961C112.944 19.8974 112.927 19.8471 112.91 19.78Z" fill="white"/>
<path d="M124.01 17.3655C123.407 14.5988 120.925 12.7209 118.075 12.9053C115.258 13.0897 112.977 15.3534 112.776 18.1703C112.743 18.7069 112.776 19.2267 112.894 19.7465L112.961 19.7632H112.977C113.011 19.7632 113.028 19.78 113.061 19.78C113.145 19.7968 113.229 19.8135 113.313 19.8135C113.464 19.8135 113.631 19.8135 113.816 19.7968C113.866 19.7968 113.916 19.78 113.95 19.78C113.967 19.78 113.983 19.78 114 19.78H114.034C113.933 19.3943 113.866 18.9919 113.866 18.5895C113.866 18.3715 113.883 18.1703 113.916 17.9523H123.524C123.658 17.9523 123.792 17.8853 123.876 17.7847C124.01 17.6505 124.044 17.4996 124.01 17.3655ZM114.268 16.7954C114.989 15.1019 116.616 14.012 118.46 14.012C120.305 14.012 121.948 15.1019 122.652 16.7954H114.268Z" fill="white"/>
<path d="M113.799 19.9479H113.782C113.698 19.9479 113.614 19.9647 113.547 19.9647C113.48 19.9647 113.447 19.9647 113.397 19.9815H113.38H113.363C113.262 19.9479 113.162 19.9312 113.061 19.9312C113.095 20.0485 113.128 20.1659 113.179 20.2833C113.698 21.7085 114.771 22.8487 116.23 23.5027C117.79 24.2237 119.617 24.274 121.227 23.6536C122.233 23.2679 123.122 22.6307 123.759 21.8259C123.926 21.6247 123.977 21.3732 123.926 21.1217C123.876 20.8701 123.725 20.6522 123.491 20.518C122.954 21.5744 122.015 22.396 120.841 22.832C118.259 23.8212 115.274 22.681 114.201 20.3C114.151 20.1659 114.084 20.0318 114.034 19.8809H114C113.95 19.9312 113.883 19.9312 113.799 19.9479Z" fill="white"/>
<path d="M113.346 19.9978H113.363H113.38C113.43 19.9978 113.464 19.9811 113.531 19.9811C113.598 19.9643 113.682 19.9643 113.765 19.9643H113.782C113.866 19.9475 113.933 19.9308 114 19.9308H114.034C114.017 19.8972 114.017 19.8805 114 19.8469C113.95 19.8469 113.9 19.8637 113.849 19.8637C113.832 19.8637 113.799 19.8805 113.782 19.8805C113.698 19.8805 113.598 19.8972 113.531 19.914C113.48 19.914 113.43 19.914 113.38 19.9308C113.279 19.8972 113.162 19.8805 113.028 19.8805C113.028 19.914 113.044 19.9308 113.044 19.9643C113.145 19.9475 113.246 19.9643 113.346 19.9978Z" fill="white"/>
<path d="M113.514 19.8974C113.598 19.8806 113.682 19.8639 113.765 19.8639C113.782 19.8639 113.816 19.8471 113.832 19.8471C113.631 19.8639 113.464 19.8806 113.313 19.8639C113.212 19.8639 113.111 19.8471 112.994 19.8303V19.8471C113.128 19.8471 113.246 19.8639 113.346 19.8974C113.413 19.8974 113.464 19.8974 113.514 19.8974Z" fill="white"/>
<path d="M112.894 19.7295L112.91 19.7798C112.91 19.763 112.91 19.7463 112.894 19.7295Z" fill="white"/>
<path d="M114.101 19.9143H114.067C114.118 20.0484 114.168 20.1825 114.218 20.3167C115.291 22.6809 118.226 23.8043 120.791 22.8318C122.015 22.3623 122.92 21.5072 123.44 20.4844C123.96 20.7694 124.111 21.4233 123.759 21.8761C123.122 22.6641 122.266 23.3013 121.21 23.7205C117.974 24.9613 114.252 23.4354 113.111 20.3167C113.061 20.1993 113.028 20.0652 112.994 19.9478H112.944C112.977 20.0819 113.011 20.1993 113.061 20.3334C113.581 21.7755 114.688 22.9324 116.146 23.6031C117.002 23.9888 117.94 24.19 118.863 24.19C119.651 24.19 120.456 24.0391 121.21 23.754C122.233 23.3684 123.122 22.7144 123.776 21.9096C123.96 21.6916 124.027 21.4066 123.96 21.1383C123.91 20.8532 123.708 20.6017 123.44 20.4508L123.407 20.4341L123.39 20.4676C122.87 21.5239 121.931 22.3455 120.774 22.7815C118.226 23.754 115.308 22.6306 114.252 20.2999C114.185 20.149 114.118 19.9813 114.067 19.7801L114.05 19.7466C114.05 19.7633 114.067 19.7969 114.067 19.8137L114.101 19.9143Z" fill="white"/>
<path d="M113.329 19.7969C113.246 19.7969 113.162 19.7801 113.078 19.7634C113.179 19.7634 113.279 19.7801 113.38 19.8137C113.43 19.8137 113.464 19.7969 113.514 19.7969C113.581 19.7801 113.665 19.7801 113.765 19.7634C113.799 19.7634 113.816 19.7466 113.832 19.7466C113.648 19.7969 113.48 19.7969 113.329 19.7969Z" fill="white"/>
<path d="M113.983 19.7633C113.983 19.7801 113.983 19.7969 114 19.7969C114.017 19.7969 114.034 19.7969 114.05 19.7969C114.067 19.8304 114.084 19.8807 114.084 19.9143H114.118L114.084 19.8137C114.084 19.7969 114.067 19.7633 114.067 19.7466H114.034C114.017 19.7633 114 19.7633 113.983 19.7633Z" fill="white"/>
<path d="M112.961 19.78C112.977 19.78 112.994 19.78 113.011 19.78C113.011 19.7632 113.011 19.7464 112.994 19.7297H112.977L112.91 19.7129C112.91 19.7297 112.91 19.7464 112.927 19.7632V19.78C112.944 19.8303 112.961 19.8806 112.961 19.9309H113.011C112.977 19.8806 112.961 19.8303 112.961 19.78Z" fill="white"/>
<path d="M113.329 19.8303C113.547 19.8303 113.765 19.8135 114 19.7967C114 19.78 114 19.7632 113.983 19.7632C113.933 19.7632 113.883 19.78 113.849 19.78C113.832 19.78 113.799 19.78 113.782 19.7967C113.682 19.7967 113.598 19.8135 113.531 19.8303C113.48 19.8303 113.43 19.8303 113.397 19.847C113.296 19.8135 113.195 19.7967 113.095 19.7967C113.061 19.7967 113.044 19.78 113.011 19.78C113.011 19.7967 113.011 19.8135 113.028 19.8303C113.111 19.8135 113.212 19.8303 113.329 19.8303Z" fill="white"/>
<path d="M114.185 20.3336C115.258 22.7146 118.226 23.8548 120.825 22.8655C121.998 22.4127 122.92 21.5911 123.474 20.5516C123.709 20.6857 123.859 20.9037 123.91 21.1552C123.96 21.4067 123.893 21.6582 123.742 21.8594C123.088 22.6643 122.216 23.3014 121.21 23.6871C119.6 24.3075 117.773 24.2404 116.213 23.5362C114.771 22.8822 113.682 21.7253 113.162 20.3168C113.128 20.1994 113.078 20.0821 113.044 19.9647C113.028 19.9647 113.028 19.9647 113.011 19.9647H112.994C113.028 20.0821 113.061 20.2162 113.111 20.3336C114.235 23.4523 117.974 24.9782 121.21 23.7374C122.267 23.335 123.138 22.681 123.759 21.893C124.128 21.4402 123.977 20.7863 123.44 20.5012C122.92 21.5241 122.015 22.3792 120.791 22.8487C118.226 23.838 115.274 22.7146 114.218 20.3336C114.151 20.1994 114.118 20.0653 114.067 19.9312H114.017C114.084 20.0653 114.134 20.2162 114.185 20.3336Z" fill="white"/>
<path d="M113.044 19.9478C113.044 19.9142 113.028 19.8975 113.028 19.8639C113.028 19.8472 113.028 19.8304 113.011 19.7969C112.994 19.7969 112.977 19.7969 112.961 19.7969C112.977 19.8472 112.994 19.8975 113.011 19.9478H113.028C113.028 19.9478 113.028 19.9478 113.044 19.9478Z" fill="white"/>
<path d="M113.849 19.8638C113.9 19.8638 113.95 19.847 114 19.847C114 19.8805 114.017 19.8973 114.034 19.9308H114.084C114.067 19.8973 114.05 19.847 114.05 19.8135C114.034 19.8135 114.017 19.8135 114 19.8135C114 19.8302 114 19.8302 114.017 19.847C113.95 19.847 113.9 19.847 113.849 19.8638Z" fill="white"/>
<path d="M113.329 19.8303C113.212 19.8303 113.111 19.8136 112.994 19.78C112.994 19.7968 112.994 19.8136 113.011 19.8471V19.8303C113.111 19.8471 113.229 19.8639 113.329 19.8639C113.48 19.8639 113.648 19.8639 113.849 19.8471C113.9 19.8303 113.95 19.8303 114 19.8303C114 19.8136 114 19.8136 113.983 19.7968C113.765 19.8303 113.531 19.8471 113.329 19.8303Z" fill="white"/>
<path d="M87.0883 12.8718C85.2942 12.8718 83.6007 13.727 82.5276 15.1522V13.0898H82.4437C81.8736 13.0898 81.4041 13.5593 81.4041 14.1294V22.9826C81.4041 23.5527 81.8736 24.0222 82.4437 24.0222H82.5276V18.5225C82.5443 16.3427 84.1037 14.4647 86.25 14.0791C86.7865 13.9785 87.1722 13.509 87.1722 12.9557V12.8718H87.0883Z" fill="white"/>
<path d="M94.7007 17.768C95.2876 17.768 95.7571 17.2985 95.7571 16.7117V16.6278H91.1125V12.0838V12H91.0287C90.4418 12 89.9723 12.4695 89.9723 13.0564V16.6446H89.9052C89.3352 16.6446 88.8657 17.1141 88.8657 17.6842V17.768H89.9723V18.5729C89.9723 21.7084 92.521 24.257 95.6733 24.257H95.7571V24.1732C95.7571 23.6199 95.3714 23.1504 94.8349 23.0498C92.6719 22.6474 91.1125 20.7694 91.1125 18.5729V17.768H94.7007Z" fill="white"/>
<path d="M132.545 12.8718C130.751 12.8718 129.057 13.727 127.984 15.1522V13.0898H127.9C127.33 13.0898 126.861 13.5593 126.861 14.1294V22.9826C126.861 23.5527 127.33 24.0222 127.9 24.0222H127.984V18.5225C128.001 16.3427 129.56 14.4647 131.707 14.0791C132.243 13.9785 132.629 13.509 132.629 12.9557V12.8718H132.545Z" fill="white"/>
<path d="M139.671 18.1204C137.961 17.8018 136.351 17.5167 136.351 15.9909C136.351 15.3873 136.653 13.962 139.453 13.962C140.275 13.962 141.046 14.0962 141.734 14.3644C142.27 14.5656 142.874 14.3812 143.209 13.9285C142.304 13.3584 140.811 12.9895 139.453 12.9895C136.854 12.9895 135.161 14.18 135.161 16.0412C135.161 18.3551 137.24 18.7408 139.252 19.0929C140.912 19.3947 142.471 19.663 142.471 21.1217C142.471 22.044 141.918 23.1338 139.286 23.1338C138.263 23.1338 137.19 22.8991 136.267 22.4799C135.748 22.2452 135.144 22.4128 134.809 22.8656C135.781 23.6201 137.508 24.1231 139.168 24.1231C141.935 24.1231 143.645 22.9494 143.645 21.0714C143.679 18.8581 141.633 18.4892 139.671 18.1204Z" fill="white"/>
</svg>

<svg width="144" height="42" viewBox="0 0 144 42" fill="none" xmlns="http://www.w3.org/2000/svg"><path d="M31.748 17.463l-5.403 6.069a3.426 3.426 0 01-1.21.832h2.74a3.42 3.42 0 002.497-1.065l5.392-6.047a1.3 1.3 0 01.189-.155H32.58c-.3 0-.577.11-.788.322l-.044.044zm-18.473 1.864v20.458c0 .788.644 1.432 1.431 1.432.788 0 1.432-.644 1.432-1.432V19.283a2.468 2.468 0 011.442-2.197h-2.041a2.254 2.254 0 00-2.264 2.24z" fill="#fff"/><path d="M2.047 27.049a18.793 18.793 0 007.334 7.977v-2.397a2.25 2.25 0 00-.777-1.697 15.978 15.978 0 01-5.558-12.104c0-4.272 1.686-8.277 4.737-11.306 3.051-3.018 7.079-4.67 11.35-4.626a15.816 15.816 0 019.109 2.95 15.92 15.92 0 015.67 7.357c.71-.022 1.353-.4 1.719-1.01.377-.632.41-1.398.066-2.053-1.797-3.439-4.682-6.312-8.132-8.076A18.683 18.683 0 0019 0c-1.098 0-2.208.1-3.328.288-3.45.588-6.946 2.519-9.852 5.426C2.924 8.62 1.004 12.126.428 15.577c-.655 3.972-.1 7.933 1.62 11.472z" fill="#fff"/><path d="M18.59 17.075c-.822 0-1.565.432-1.953 1.143l5.081 5.08c.61.678 1.41 1.055 2.252 1.055.744 0 1.465-.278 2.03-.799l-5.857-5.858a2.237 2.237 0 00-1.553-.621zm18.095.011c-.289 0-.566.11-.766.31l-.044.045-.932 1.043v.344c0 7.721-5.503 14.323-13.092 15.687a2.226 2.226 0 00-1.83 2.197v.91a18.728 18.728 0 0012.592-5.791 18.77 18.77 0 005.226-13.014c0-.211 0-.444-.011-.71a1.153 1.153 0 00-1.143-1.021zm27.667 1.068c-.202-2.817-2.465-5.08-5.265-5.265a5.58 5.58 0 00-4.276 1.509A5.724 5.724 0 0053 18.54v8.752c0 .57.47 1.04 1.04 1.04h.083V21.96a5.655 5.655 0 004.561 2.28 5.672 5.672 0 004.159-1.81 5.557 5.557 0 001.509-4.276zm-5.366 4.963a4.581 4.581 0 01-3.521-1.325 4.581 4.581 0 01-1.325-3.52 4.58 4.58 0 014.26-4.26c.1 0 .2-.016.284-.016 1.207 0 2.364.47 3.236 1.341a4.58 4.58 0 011.325 3.521 4.58 4.58 0 01-4.259 4.26zm19.584-4.561a5.672 5.672 0 00-1.81-4.158 5.58 5.58 0 00-4.276-1.51c-2.817.202-5.08 2.466-5.265 5.266a5.643 5.643 0 001.509 4.276 5.736 5.736 0 004.158 1.81 5.726 5.726 0 004.561-2.28v2.063h.084c.57 0 1.04-.47 1.04-1.04v-4.427zm-1.14.302a4.58 4.58 0 01-4.259 4.26 4.581 4.581 0 01-3.52-1.325 4.58 4.58 0 01-1.325-3.522 4.58 4.58 0 014.258-4.259c.101 0 .202-.016.285-.016a4.56 4.56 0 013.237 1.341 4.58 4.58 0 011.324 3.521zm32.512-.503c-.1-3.035-2.632-5.483-5.684-5.483a5.726 5.726 0 00-4.56 2.28v-2.045h-.084c-.57 0-1.04.47-1.04 1.04v8.836c0 .57.47 1.04 1.04 1.04h.084V18.64c0-2.364 1.961-4.494 4.275-4.628a4.472 4.472 0 013.404 1.224 4.53 4.53 0 011.442 3.32v5.466h.084c.57 0 1.039-.47 1.039-1.04v-4.627zm2.968 1.425c0 .034.017.067.017.1l.017.068h.017c-.017-.05-.034-.1-.051-.168zm11.1-2.414c-.603-2.767-3.085-4.645-5.935-4.46-2.817.184-5.098 2.447-5.299 5.264-.033.537 0 1.057.118 1.576l.067.017h.016c.034 0 .051.017.084.017.084.017.168.034.252.034.151 0 .318 0 .503-.017.05 0 .1-.017.134-.017h.084a4.727 4.727 0 01-.168-1.19c0-.218.017-.42.05-.638h9.608a.472.472 0 00.352-.167c.134-.134.168-.285.134-.42zm-9.742-.57a4.535 4.535 0 014.192-2.784 4.516 4.516 0 014.192 2.783h-8.384zm-.469 3.152h-.017c-.084 0-.168.017-.235.017-.067 0-.1 0-.15.017h-.034a.949.949 0 00-.302-.05c.034.117.067.234.118.351.519 1.425 1.592 2.566 3.051 3.22a6.458 6.458 0 004.997.15c1.006-.385 1.895-1.022 2.532-1.827a.822.822 0 00.167-.704.888.888 0 00-.435-.604c-.537 1.056-1.476 1.878-2.65 2.314-2.582.99-5.567-.151-6.64-2.532-.05-.134-.117-.268-.167-.42H114c-.05.051-.117.051-.201.068z" fill="#fff"/><path d="M113.346 19.998h.034c.05 0 .084-.017.151-.017.067-.017.151-.017.234-.017h.017c.084-.016.151-.033.218-.033h.034c-.017-.034-.017-.05-.034-.084-.05 0-.1.017-.151.017-.017 0-.05.017-.067.017-.084 0-.184.016-.251.033a.46.46 0 00-.151.017 1.114 1.114 0 00-.352-.05c0 .033.016.05.016.083a.624.624 0 01.302.034z" fill="#fff"/><path d="M113.514 19.897c.084-.016.168-.033.251-.033.017 0 .051-.017.067-.017-.201.017-.368.034-.519.017-.101 0-.202-.017-.319-.034v.017c.134 0 .252.017.352.05h.168zm-.62-.167l.016.05c0-.017 0-.034-.016-.05z" fill="#fff"/><path d="M114.101 19.914h-.034l.151.403c1.073 2.364 4.008 3.487 6.573 2.515 1.224-.47 2.129-1.325 2.649-2.348.52.285.671.94.319 1.392-.637.788-1.493 1.425-2.549 1.845-3.236 1.24-6.958-.286-8.099-3.404-.05-.118-.083-.252-.117-.37h-.05c.033.135.067.252.117.386.52 1.443 1.627 2.6 3.085 3.27a6.658 6.658 0 002.717.587c.788 0 1.593-.15 2.347-.436a6.093 6.093 0 002.566-1.844.868.868 0 00.184-.772c-.05-.285-.252-.536-.52-.687l-.033-.017-.017.034c-.52 1.056-1.459 1.878-2.616 2.314-2.548.972-5.466-.151-6.522-2.482a3.173 3.173 0 01-.185-.52l-.017-.033c0 .016.017.05.017.067l.034.1zm-.772-.117c-.083 0-.167-.017-.251-.034.101 0 .201.017.302.05.05 0 .084-.016.134-.016.067-.017.151-.017.251-.034.034 0 .051-.016.067-.016-.184.05-.352.05-.503.05z" fill="#fff"/><path d="M113.983 19.763c0 .017 0 .034.017.034h.05a.307.307 0 01.034.117h.034l-.034-.1c0-.017-.017-.05-.017-.067h-.033c-.017.016-.034.016-.051.016zm-1.022.017h.05c0-.017 0-.034-.017-.05h-.017l-.067-.017c0 .017 0 .033.017.05v.017c.017.05.034.1.034.15h.05a.266.266 0 01-.05-.15z" fill="#fff"/><path d="M113.329 19.83c.218 0 .436-.016.671-.033 0-.017 0-.034-.017-.034-.05 0-.1.017-.134.017-.017 0-.05 0-.067.017-.1 0-.184.017-.251.033-.051 0-.101 0-.134.017a.956.956 0 00-.302-.05c-.034 0-.051-.017-.084-.017 0 .017 0 .034.017.05.083-.016.184 0 .301 0zm.856.504c1.073 2.38 4.041 3.52 6.64 2.532 1.173-.453 2.095-1.275 2.649-2.314a.882.882 0 01.268 1.308 6.056 6.056 0 01-2.532 1.827 6.534 6.534 0 01-4.997-.15c-1.442-.655-2.531-1.812-3.051-3.22-.034-.118-.084-.235-.118-.352h-.05c.034.117.067.251.117.369 1.124 3.118 4.863 4.644 8.099 3.403a5.91 5.91 0 002.549-1.844c.369-.453.218-1.107-.319-1.392-.52 1.023-1.425 1.878-2.649 2.348-2.565.989-5.517-.134-6.573-2.515-.067-.135-.1-.269-.151-.403h-.05c.067.134.117.285.168.403z" fill="#fff"/><path d="M113.044 19.948c0-.034-.016-.05-.016-.084 0-.017 0-.034-.017-.067h-.05l.05.15h.033zm.805-.084c.051 0 .101-.017.151-.017 0 .034.017.05.034.084h.05a.307.307 0 01-.034-.117H114c0 .016 0 .016.017.033-.067 0-.117 0-.168.017z" fill="#fff"/><path d="M113.329 19.83c-.117 0-.218-.016-.335-.05 0 .017 0 .034.017.067v-.017c.1.017.218.034.318.034.151 0 .319 0 .52-.017.051-.017.101-.017.151-.017 0-.016 0-.016-.017-.033a2.9 2.9 0 01-.654.033zm-26.241-6.958a5.726 5.726 0 00-4.56 2.28V13.09h-.084c-.57 0-1.04.47-1.04 1.04v8.853c0 .57.47 1.04 1.04 1.04h.084v-5.5c.016-2.18 1.576-4.058 3.722-4.444.537-.1.922-.57.922-1.123v-.084h-.084zm7.612 4.896c.588 0 1.057-.47 1.057-1.056v-.084h-4.645V12h-.083c-.587 0-1.057.47-1.057 1.056v3.589h-.067c-.57 0-1.04.47-1.04 1.04v.083h1.107v.805c0 3.135 2.549 5.684 5.701 5.684h.084v-.084c0-.553-.386-1.023-.922-1.123a4.548 4.548 0 01-3.722-4.477v-.805H94.7zm37.845-4.896a5.726 5.726 0 00-4.561 2.28V13.09h-.084c-.57 0-1.039.47-1.039 1.04v8.853c0 .57.469 1.04 1.039 1.04h.084v-5.5c.017-2.18 1.576-4.058 3.723-4.444.536-.1.922-.57.922-1.123v-.084h-.084zm7.126 5.248c-1.71-.318-3.32-.603-3.32-2.13 0-.603.302-2.028 3.102-2.028.822 0 1.593.134 2.281.402a1.28 1.28 0 001.475-.436c-.905-.57-2.398-.939-3.756-.939-2.599 0-4.292 1.191-4.292 3.052 0 2.314 2.079 2.7 4.091 3.052 1.66.302 3.219.57 3.219 2.029 0 .922-.553 2.012-3.185 2.012a7.463 7.463 0 01-3.019-.654 1.199 1.199 0 00-1.458.386c.972.754 2.699 1.257 4.359 1.257 2.767 0 4.477-1.174 4.477-3.052.034-2.213-2.012-2.582-3.974-2.95z" fill="#fff"/></svg>
